X:193
T:New Rigg'd Ship. JC.196
R:Jig
S:John Clare,Poet,Helpstone (1793-1864)
N:No TS given: 2/4 added.
O:England
A:Northamptonshire
Z:vmp.P. Headford
M:6/8
L:1/8
Q:3/8=120
K:C
G|\
c2cc2e|dBGG2B|dBG GAB|!
c2cc2:|!
e/f/|g2eg2e|c2c ceg|a2fa2f|d2d def|!
g2eg2e|c3-c2e/f/|!
gfe gfe|c>dc ceg|agf agf|d>ed def|!
gfe gfe|cec dBG|ABc dBG|cGEC2|]

